X:1
T:Cease mine eyes - Morley
T:James Gibb editions
T:#
%%score [ 1 2 3 ]
L:1/8
Q:1/4=120
M:4/4
K:F
V:1 treble nm="Soprano" snm="S"
V:2 treble nm="Alto" snm="A"
V:3 treble-8 nm="Tenor" snm="T"
V:1
 z8 |"^Cease mine eyes" z8 | d8 | ^c4 d4 |"^Thomas Morley\n(1557-1603)" z2 G2 c2 d2 | B8 | %6
w: ||Cease|mine eyes,|this your la-|ment-|
[M:4/4] A2 d2 c2 B2 | (AGAB c2) B2 | A2 G2 A4 | G2 d4 cB | A2 f4 ed | ^c2 d2 d2 c2 | %12
w: ing, this your la-|ment\- * * * * ing,|your la- ment-|ing, O cease, a-|las, O cease, a-|las, this your la-|
 (d2 =cB AG A2) | =B2 G2 _B2 G2 | d4 A2 d2- | d2 c2 d2 B2 | c2 d2 _e4 | d4 c2 B2 | A2 B2 (AGAB | %19
w: ment\- * * * * *|ing. In vain, in|vain, in vain|* you hope, you|hope in vain|of her hard|heart's re- lent\- * * *|
 c2 B2 A2 G2 | B4 A4) | =B6 d2 | d2 d2 (B2 c2) | d8 | z8 | z4 d4- | d2 A2 c4- | c2 G2 B4 | A4 G4 | %29
w: ||ing. O|cease your flow\- *|ing:||drop|* not, drop|* not, drop|not so|
 F4 f4 | e4 d4 | c6 d2 | B4 A4 | G8 | ^F8 | z8 | d2 e2 f2 d2 | e2 f2 g4 | ^f2 (g4 f2) | g8 | z8 | %41
w: fast, drop|not where|no, no|grace is|grow-|ing.||See she laughs, she|smiles, she plays|with glad\- *|ness;||
 G2 A2 B2 G2 | A2 B2 c2 A2 | B2 c2 (d2 cB | A2) d2 d2 c2 | (d2 cB AG A2) | =B4 G2 A2 | %47
w: see she laughs, she|smiles, she plays, she|plays and smiles * *|* with joy and|glad\- * * * * *|ness; see she|
 _B2 G2 A2 B2 | c2 A2 B2 c2 | d4 c2 d2 | B2 c2 d2 B2 | c2 d2 G2 c2 | B4 A2 B2 | A2 (d4 c2) | %54
w: laughs, she smiles, she|plays, she laughs, she|smiles, she plays,|see she laughs and|smiles and plays, and|plays with joy|and glad\- *|
 d4 z4 | z4 z2 d2 | c2 A2 B2 B2 | A4 G2 g2 | f2 d2 _e2 e2 | d4 c2 f2 | _e2 d2 c4 | d8 | %62
w: ness;|To|see your grief and|sad- ness. O|Love, thou art a-|bus- ed, thou|art a- bus-|ed;|
 z2 g2 f2 d2 | _e4 d2 d2 | c2 B2 A2 d2 | B4 c4- | c4 B4 | A8 | =B4 G4 | d4 z2 g2 | f2 d2 _e2 e2 | %71
w: Was ne- ver|true love so|scorn- ful- ly thus,|thus, O|* thus|us-|ed. O|Love, O|Love, thou art a-|
 d4 c2 A2 | B2 c2 d4 | (c2 d2) _e4 | d8 | z4 z2 g2 | f2 d2 _e4 | d2 d2 c2 B2 | A4 d4 | B4 c4- | %80
w: bus- ed, O|Love, thou art|a\- * bus-|ed:|Was|ne- ver true|love so scorn- ful-|ly thus,|thus, O|
 c4 B4 | A8 | =B8 |] %83
w: * thus|us-|ed.|
V:2
 G8 | ^F4 G4- | G2 D2 =F2 G2 | E4 D2 (GA) | B4 A2 ^F2 | G2 D2 G4 |[M:4/4] ^F2 B2 A2 G2 | %7
w: Cease|mine eyes,|* cease your la-|ment- ing, la\- *|ment- ing, this|your la- ment-|ing, this your la-|
 (^FEFG A2 G2- | G2 ^FE F4) | G2 B4 AG | ^F2 A4 G=F | E2 D2 E4 | ^F2 (G4 F2) | G8 | z2 D2 F2 D2 | %15
w: ment\- * * * * *||ing, cease, O a-|las, O cease, a-|las, this your|la- ment\- *|ing|In vain, in|
 G4 F2 G2- | GA B4 A2 | B2 B2 A2 G2 | (^F2 DE FEFG | A2 G2 G4- | G2 ^FE F4) | G6 B2 | A2 B2 G4 | %23
w: vain it is|* to hope of|her hard heart's re-|lent\- * * * * * *|||ing. O|cease your flow-|
 ^F4 A4 | B4 A4- | A2 G2 (G4- | G2 ^FE F4) | G4 d4- | d2 A2 c4 | B4 A4- | A2 G2 G4- | G4 ^F4 | %32
w: ing: O|drop, drop|* not, drop||not, drop|* not so|fast, where|* no grace|* is|
 (G4 D4- | D4 C4) | D8 | A2 B2 c2 A2 | B4 A2 B2- | Bc d4 c2 | d2 (cB AG A2) | G2 G2 z4 | %40
w: grow\- *||ing.|See she laughs, she|smiles, she plays,|* she plays with|joy and * * * *|glad- ness;|
 D2 E2 F2 D2 | E2 F2 G2 E2- | EF G4 ^F2 | (G2 =FE D2) E2 | F2 D2 E4 | ^F2 (G4 F2) | G8 | %47
w: see she laughs, she|smiles, she plays, see|* she plays and|smiles * * * with|joy, with joy|and glad\- *|ness;|
 D2 E2 F2 D2 | E2 F2 G4 | F2 G2 A2 ^F2 | (G2 =FE D2) G2 | F4 E2 ^F2 | G4 ^F2 G2- | G2 F2 G4 | %54
w: see she laughs, she|smiles, she plays,|she plays, laughs and|smiles * * * with|glad- ness, she|smiles with joy|* and glad-|
 ^F2 A2 B4 | A2 A4 G2- | G2 ^F2 G4 | D2 d2 c2 G2 | A2 (B4 A2) | B4 A2 d2 | c2 B2 (B2 A2) | %61
w: ness; To see|your grief, grief|* and sad-|ness. O Love, thou|art a\- *|bus- ed, thou|art a- bus\- *|
 B4 z2 d2 | c2 G2 A2 =B2 | c4 _B2 B2 | A2 G2 ^F2 B2 | G4 A4- | A2 G2 (G4- | G4 ^F4) | G4 B4 | %69
w: ed; Was|ne- ver true love|true, ne- ver|scorn- ful- ly thus,|thus, O|* thus us\-||ed. O|
 A2 =F2 G4 | A2 (B4 A2) | B2 (G4 ^F2) | G4 F2 B2 | A2 B2 (B2 A2) | B8 | z2 d2 c2 G2 | A2 =B2 c4 | %77
w: Love, thou art|a- bus\- *|ed, a\- *|bus- ed, thou|art a- bus\- *|ed:|Was ne- ver|true love, true|
 B2 B2 A2 G2 | ^F4 B4 | G4 A4- | A2 G2 (G4- | G4 ^F4) | G8 |] %83
w: love so scorn- ful-|ly, O|thus, O|* thus us\-||ed.|
V:3
 z8 | z8 | z8 | z8 | z8 | z8 |[M:4/4][K:treble-8] d8- | d4 c4 | d8 | z2 G2 B2 c2 | d2 D2 F2 G2 | %11
w: ||||||Cease|* mine|eyes,|cease your la-|ment- ing, your la-|
 A8 | D8 | z4 z2 G2 | B2 G2 d2 B2 | _e4 d2 e2- | e2 d2 c4 | B4 c4 | d8 | c4 _e4 | d8 | G4 g4 | %22
w: ment-|ing.|in|vain, in vain, in|vain you hope,|* you hope|of her|hard|heart's re-|lent-|ing. O|
 f2 d2 _e4 | d8 | d6 A2 | B8 | A8 | G2 g4 d2 | f4 _e4 | d6 d2 | c4 B4 | A8 | G4 F4 | _E8 | %34
w: cease your flow-|ing:|drop not,|O|drop|not, drop not|so fast,|drop not,|O where|no|grace is|grow-|
 D4 d2 e2 | f2 d2 e2 f2 | g4 f2 g2- | g2 f2 e4 | d8 | z4 G2 A2 | B2 G2 A2 B2 | c4 B2 c2- | %42
w: ing. See she|laughs, she smiles, she|plays with joy|* and glad-|ness;|see she|laughs, she smiles, she|plays, she plays,|
 c2 B2 A4 | G2 A2 B2 G2 | d2 (B2 A4) | d8 | G8 | z8 | z8 | z8 | G2 A2 B2 G2 | A2 B2 c2 A2 | %52
w: * and smiles,|see she plays with|joy and *|glad-|ness;||||see she laughs, she|smiles, she plays, smiles,|
 B2 c2 d2 B2 | c2 d2 _e4 | d4 z2 d2 | c2 A2 B4 | A2 d2 G2 g2 | f2 d2 _e4 | d2 (B2 c4) | %59
w: laughs, and plays with|joy and glad-|ness; To|see your grief|and sad- ness. O|Love, thou art|a- bus\- *|
 B (cde) f2 d2 | (_e4 f4) | B2 g2 f2 B2 | _e4 d2 g2 | c (d_ef) g2 G2- | G (ABc) d2 B2 | _e4 c4 | %66
w: ed, thou * * art a-|bus\- *|ed; Was ne- ver|true love so|scorn- ful\- * * ly, scorn\-|* ful\- * * ly thus,|O thus|
 d8- | d8 | G4 z2 g2 | f2 d2 _e4 | d2 (B2 c4) | B2 B2 A2 d2 | G2 _e2 d2 B2 | f2 d2 c4 | B6 g2 | %75
w: us\-||ed. O|Love, thou art|a- bus\- *|ed, O Love, O|Love, O Love, thou|art a- bus-|ed: Was|
 f2 B2 _e4 | d2 g2 c (d_ef) | g2 G3 (ABc) | d4 B4 | _e4 c4 | d8- | d8 | G8 |] %83
w: ne- ver true|love so scorn- ful\- * *|ly, scorn- ful\- * *|ly thus,|O thus|us\-||ed.|

